X: 1
T: Road To Durham, The
M: 6/8
L: 1/8
R: jig
K: Dmix
FAA ABd|BAG AGE| ~G3 ~B3|AGA E2D|
FAA ABd|BAG AGE|DED F2A|GEA D2A:|
F2A ABc|ded B3|~G3 ~B3|AGA E2D|
[1F2A ABc|dAd AGE|DED F2A|GEA D2A:|
[2A2D ABc|.d2d AGE|DED F2A|GEA D2A:|
